X:110
T:Toss the Feathers
R:reel
H:Other versions: #263 (Ddor), #163 (Edor), #652 (Ddor)
D:Matt Molloy
D:Kevin Burke: If the Cap Fits
Z:id:hn-reel-110
M:C|
K:Dmix
D2 (3FED AD (3FED | ABcA GE~E2 | D2 (3FED ADFA | dfed cAGE |
D2 (3FED AD (3FED | ABcA GE~E2 | cABG A2B^c | dfed cAGE :|
|: Ad~d2 Ad~d2 | Ad^cd edcd | eaag ~a3g | eaag ed^cd |
efge afge | dfed cAAB | cABG A2B^c | dfed cAGE :|
P:variations
|: D2ED ADED | ABBA GEcE | D2ED ADEA | d2ed cAGE |
D2ED ADED | ABBA GE~E2 | cABG ~A3B |1 d2ed cAGE :|2 d2ed cAGc ||
|: Ad~d2 Ad~d2 | Ad~d2 edcd | eaag ~a3z | ~a3g ed^cd |
efge a2ge | f2ed ^cA~A2 | cABG ~A3B |1 d2ed cAGc :|2 d2ed cAGE ||

